src/assets/tokens/FUSE.svg

<svg width="552" height="149" viewBox="0 0 552 149" fill="none" xmlns="http://www.w3.org/2000/svg">
<rect y="0.575928" width="552" height="148" rx="8" fill="#F3F3F3"></rect>
<g clip-path="url(#clip0_12748_2907)">
<rect x="233.731" y="32.3064" width="84.751" height="84.751" rx="42.3755" fill="#010101"></rect>
<path d="M267.564 53.6584L275.755 48.9278C275.988 48.7933 276.278 48.7933 276.511 48.9278L298.1 61.3923C298.333 61.5269 298.477 61.7759 298.479 62.0451L298.508 70.6179C298.508 70.8893 298.365 71.1405 298.129 71.2751L289.949 75.9989C289.447 76.2905 288.816 75.9272 288.814 75.3462L288.787 67.6526C288.787 67.3835 288.641 67.1345 288.408 66.9999L267.564 54.9683C267.059 54.6767 267.059 53.95 267.564 53.6584Z" fill="#B4F9BA"></path>
<path d="M262.272 92.4894L254.083 87.7611C253.847 87.6265 253.704 87.3775 253.704 87.1061V62.1771C253.704 61.908 253.847 61.659 254.081 61.5222L261.492 57.2088C261.727 57.072 262.016 57.072 262.25 57.2088L270.43 61.9326C270.932 62.2242 270.935 62.9487 270.432 63.2426L263.784 67.1118C263.551 67.2464 263.407 67.4953 263.407 67.7668V91.8367C263.407 92.4199 262.777 92.7832 262.272 92.4916V92.4894Z" fill="#B4F9BA"></path>
<path d="M298.508 77.6475V87.1041C298.508 87.3755 298.364 87.6244 298.129 87.759L276.54 100.224C276.307 100.358 276.019 100.358 275.786 100.224L268.346 95.9618C268.11 95.8272 267.965 95.576 267.965 95.3046V85.8592C267.965 85.2782 268.593 84.9149 269.097 85.202L275.773 89.0263C276.006 89.1609 276.293 89.1587 276.526 89.0263L297.371 76.9902C297.875 76.6986 298.506 77.062 298.506 77.6452L298.508 77.6475Z" fill="#B4F9BA"></path>
</g>
<defs>
<clipPath id="clip0_12748_2907">
<rect width="84.9631" height="84.9631" fill="white" transform="translate(233.518 32.0945)"></rect>
</clipPath>
</defs>
</svg>

<svg fill="none" height="149" width="552" xmlns="http://www.w3.org/2000/svg"><clipPath id="a"><path d="M0 0h84.963v84.963H0z" transform="translate(233.518 32.094)"/></clipPath><rect fill="#f3f3f3" height="148" rx="8" width="552" y=".576"/><g clip-path="url(#a)"><rect fill="#010101" height="84.751" rx="42.376" width="84.751" x="233.731" y="32.306"/><path d="M267.564 53.658l8.191-4.73a.759.759 0 0 1 .756 0L298.1 61.392a.76.76 0 0 1 .379.653l.029 8.573a.754.754 0 0 1-.379.657L289.949 76a.757.757 0 0 1-1.135-.653l-.027-7.693a.756.756 0 0 0-.379-.653l-20.844-12.032a.756.756 0 0 1 0-1.31zm-5.292 38.831l-8.189-4.728a.75.75 0 0 1-.379-.655V62.177c0-.269.143-.518.377-.655l7.411-4.313a.751.751 0 0 1 .758 0l8.18 4.724a.758.758 0 0 1 .002 1.31l-6.648 3.869a.755.755 0 0 0-.377.655v24.07c0 .583-.63.946-1.135.655zm36.236-14.842v9.457c0 .272-.144.52-.379.655l-21.589 12.465a.757.757 0 0 1-.754 0l-7.44-4.262a.756.756 0 0 1-.381-.657v-9.446a.757.757 0 0 1 1.132-.657l6.676 3.824c.233.135.52.133.753 0l20.845-12.036a.756.756 0 0 1 1.135.655z" fill="#b4f9ba"/></g></svg>
